dist/images/ignore/delete.svg

<svg xmlns="http://www.w3.org/2000/svg" width="13" height="13" viewBox="0 0 13 13"><path fill="#8596A5" d="M5 6h1v4h-1v-4zm6-3h-1v-2c0-.6-.4-1-1-1h-5c-.6 0-1 .4-1 1v2h-1c-.6 0-1 .4-1 1v1h1v7c0 .6.4 1 1 1h7c.6 0 1-.4 1-1v-7h1v-1c0-.6-.4-1-1-1zm-6-1h3v1h-3v-1zm4 9h-5v-6h5v6zm-2-5h1v4h-1v-4z"/><path fill="#A2AFBA" d="M5 6h1v4h-1zm2 0h1v4h-1z"/></svg>

<svg xmlns="http://www.w3.org/2000/svg" width="13" height="13" viewBox="0 0 13 13"><path fill="#8596A5" d="M5 6h1v4H5V6zm6-3h-1V1c0-.6-.4-1-1-1H4c-.6 0-1 .4-1 1v2H2c-.6 0-1 .4-1 1v1h1v7c0 .6.4 1 1 1h7c.6 0 1-.4 1-1V5h1V4c0-.6-.4-1-1-1zM5 2h3v1H5V2zm4 9H4V5h5v6zM7 6h1v4H7V6z"/><path fill="#A2AFBA" d="M5 6h1v4H5zm2 0h1v4H7z"/></svg>
